!!!!SEGMENT: pl-cz--iii-669--001-006_scigalski-franciszek--missa-in-b-et-incarnatus.krn
!!!cenid: 18xx:1111
!!!COM: Ścigalski, Franciszek
!!!COM-rismID: pe30002948
!!!CDT: 1782/01/29-1846/09/27
!!!CNT: Polish
!!!OPR: Missa in B
!!!OTL: Et incarnatus
!!!OMV: 006
!!!PDT:
!!!AGN: Sacred; Mass
!!!SMS-siglum: PL-CZ
!!!SMS-shelfmark: III-669
!!!SMS-shelfwork: 001-006 M
!!!SMS-variant:
!!!SMS-altvar:
!!!NIFC-rismSourceID: 300001314
!!!NIFC-islandoraID: pl-cz:39833
!!!URL-pdf-islandora: https://repozytorium.nifc.pl/islandora/object/pl-cz%3A39833/datastream/PDF/view
!!!URL-scan:
!!!ONB-nifc: UWAGA: części Mszy: Kyrie, Gloria, Qui tollis, Quoniam, Credo, Et incarnatus, Et resurrexit, Sanctus, Benedictus, Agnus Dei, Dona nobis
!!!AIN: 1 alto 1 bass 2 clara 2 cor 1 fagot 1 flt 1 organ 1 soprn 1 tenor 1 timpa 1 tromp 1 viola 2 violn
!!!key: E-
**kern	**fba	**dynam	**kern	**kern	**dynam	**kern	**dynam	**kern	**text	**kern	**text	**kern	**text	**kern	**text	**kern	**kern	**kern	**kern	**kern	**kern	**kern	**dynam	**kern
*	*	*	*group4	*group4	*	*group4	*	*group3	*	*group3	*	*group3	*	*group3	*	*	*group2	*group2	*group2	*group1	*group1	*group1	*	*group1
*part16	*part16	*part16	*part15	*part14	*part14	*part13	*part13	*part12	*part12	*part11	*part11	*part10	*part10	*part9	*part9	*part8	*part7	*part6	*part5	*part4	*part3	*part2	*part2	*part1
*staff16	*	*	*staff15	*staff14	*	*staff13	*	*staff12	*staff12	*staff11	*staff11	*staff10	*staff10	*staff9	*staff9	*staff8	*staff7	*staff6	*staff5	*staff4	*staff3	*staff2	*	*staff1
*I"Organo	*	*	*I"Alto Viola	*I"Violino 2.do	*	*I"Violino. Primo.	*	*I"Basso!	*	*I"Tenore	*	*I"Alto	*	*I"Canto	*	*I"Tympano. in B.F.	*I"Claryino Princypalo	*I"Corno Sekundo in F	*I"Cornu Prymo in F	*I"Fagotto Oblgato	*I"Clarinetto 2do. in B	*I"Clarinetto 1mo in B	*	*I"Flauto Obligato.
*I'org	*	*	*I'a-vla	*I'vl 2	*	*I'vl 1	*	*I'B	*	*I'T	*	*I'A	*	*I'S	*	*I'timp	*I'clno princ	*I'cor 2 in F	*I'cor 1 in F	*I'fag	*I'cl 2 in B|b	*I'cl 1 in B|b	*	*I'fl
*Iorgan	*	*	*Iviola	*Ivioln	*	*Ivioln	*	*Ibass	*	*Itenor	*	*Ialto	*	*Isoprn	*	*Itimpa	*Itromp	*Icor	*Icor	*Ifagot	*Iclara	*Iclara	*	*Iflt
*ICklav	*	*	*ICstr	*ICstr	*	*ICstr	*	*ICvox	*	*ICvox	*	*ICvox	*	*ICvox	*	*ICidio	*ICbras	*ICbras	*ICbras	*ICww	*ICww	*ICww	*	*ICww
*IGcont	*	*	*	*	*	*	*	*IGcoro	*	*IGcoro	*	*IGcoro	*	*IGcoro	*	*	*	*	*	*	*	*	*	*
*clefF4	*	*	*clefC3	*clefG2	*	*clefG2	*	*clefF4	*	*clefC4	*	*clefC3	*	*clefC1	*	*clefF4	*clefG2	*clefG2	*clefG2	*clefF4	*clefG2	*clefG2	*	*clefG2
*	*	*	*	*	*	*	*	*	*	*	*	*	*	*	*	*ITrd-2c-3	*	*ITrd-2c-3	*ITrd-2c-3	*	*ITrd1c2	*ITrd1c2	*	*
*k[b-e-a-]	*	*	*k[b-e-a-]	*k[b-e-a-]	*	*k[b-e-a-]	*	*k[b-e-a-]	*	*k[e-b-a-]	*	*k[b-e-a-]	*	*k[b-e-a-]	*	*k[b-e-a-]	*k[b-e-a-]	*k[b-e-a-]	*k[b-e-a-]	*k[e-b-a-]	*k[b-e-a-]	*k[b-e-a-]	*	*k[b-e-a-]
*E-:	*	*	*E-:	*E-:	*	*E-:	*	*E-:	*	*E-:	*	*E-:	*	*E-:	*	*	*E-:	*	*	*E-:	*E-:	*E-:	*	*E-:
*M3/4	*	*	*M3/4	*M3/4	*	*M3/4	*	*M3/4	*	*M3/4	*	*M3/4	*	*M3/4	*	*M3/4	*M3/4	*M3/4	*M3/4	*M3/4	*M3/4	*M3/4	*	*M3/4
=1	=1	=1	=1	=1	=1	=1	=1	=1	=1	=1	=1	=1	=1	=1	=1	=1	=1	=1	=1	=1	=1	=1	=1	=1
!	!	!	!	!	!	!	!	!LO:TX:a:t=32.	!	!LO:TX:a:t=32&colon;	!	!LO:TX:a:t=42.	!	!LO:TX:a:t=8	!	!	!	!LO:TX:a:t=32	!LO:TX:a:t=32	!	!LO:TX:a:t=27.	!	!	!
!LO:TX:a:i:t=Solo	!	!	!	!	!	!	!	!LO:TX:t=P:problem=znaki BB- E- A-	!	!LO:TX:b:t=32.	!	!	!	!	!	!LO:TX:a:i:t=Et in&colon; Tacet.	!	!	!LO:TX:a:i:t=in Dis	!LO:TX:a:i:t=Solo&colon;	!	!LO:TX:a:i:t=Solo.	!	!LO:TX:a:i:t=Solo.
!LO:TX:a:rj:t=Adagio	!	!LO:DY:b:rj:t=p&colon;	!LO:TX:a:rj:t=Adagio.	!LO:TX:a:i:rj:t=Adagio	!LO:DY:b:rj:t=p.	!	!LO:DY:b:rj:t=p.	!LO:TX:a:i:rj:t=Adagio	!	!LO:TX:a:i:rj:t=Adagio&colon;	!	!LO:TX:a:rj:t=Adagio	!	!LO:TX:a:rj:t=Adagio	!	!	!	!LO:TX:a:i:rj:t=Adagioin Es	!LO:TX:a:rj:t=Adagio	!LO:TX:a:rj:t=Adagio	!LO:TX:a:rj:t=Adagio	!LO:TX:a:rj:t=Adagio.	!LO:DY:t=pia	!LO:TX:a:rj:t=Adagio.
8E-\	.	p	8B-/	8r	p	8r	p	2.r	.	2.r	.	2.r	.	0.r	.	2.ryy	2.ryy	0.r	2.r	4G\	2.r	4b-\	p	4gg\
8r	.	.	8r	8g/	.	8b-\	.	.	.	.	.	.	.	.	.	.	.	.	.	.	.	.	.	.
8E-\	.	.	8B-/	8r	.	8r	.	.	.	.	.	.	.	.	.	.	.	.	.	4G\	.	4b-\	.	4gg\
8r	.	.	8r	8g/	.	8b-\	.	.	.	.	.	.	.	.	.	.	.	.	.	.	.	.	.	.
8E-\	.	.	8B-/	8r	.	8r	.	.	.	.	.	.	.	.	.	.	.	.	.	4G\	.	4b-\	.	4gg\
8r	.	.	8r	8g/	.	8b-\	.	.	.	.	.	.	.	.	.	.	.	.	.	.	.	.	.	.
=2	=2	=2	=2	=2	=2	=2	=2	=2	=2	=2	=2	=2	=2	=2	=2	=2	=2	=2	=2	=2	=2	=2	=2	=2
8E-\	.	.	8c/	8r	.	8r	.	2.r	.	2.r	.	2.r	.	.	.	2.ryy	2.ryy	.	2.r	4A-\	2.r	4cc\	.	4aa-\
8r	.	.	8r	8a-/	.	8cc\	.	.	.	.	.	.	.	.	.	.	.	.	.	.	.	.	.	.
8E-\	.	.	8B-/	8r	.	8r	.	.	.	.	.	.	.	.	.	.	.	.	.	8G\L	.	8b-\L	.	8gg\L
8r	.	.	8r	8g/	.	8b-\	.	.	.	.	.	.	.	.	.	.	.	.	.	8F\	.	8a-\	.	8ff\
4r	.	.	4r	8e-/L	.	8g/L	.	.	.	.	.	.	.	.	.	.	.	.	.	8E-\	.	8g\	.	8ee-\
.	.	.	.	8f/J	.	8a-/J	.	.	.	.	.	.	.	.	.	.	.	.	.	8F\J	.	8a-\J	.	8ff\J
=3	=3	=3	=3	=3	=3	=3	=3	=3	=3	=3	=3	=3	=3	=3	=3	=3	=3	=3	=3	=3	=3	=3	=3	=3
8E-\	.	.	8B-/	8r	.	8r	.	2.r	.	2.r	.	2.r	.	.	.	2.ryy	2.ryy	.	2.r	4G\	2.r	4b-\	.	4gg\
8r	.	.	8r	8g/	.	8b-\	.	.	.	.	.	.	.	.	.	.	.	.	.	.	.	.	.	.
!	!	!	!	!LO:LB:g=original	!	!LO:LB:g=original	!	!	!	!	!	!	!	!	!	!	!	!	!	!	!	!	!	!
8E-\	.	.	8B-/	8r	.	8r	.	.	.	.	.	.	.	.	.	.	.	.	.	4G\	.	4b-\	.	4gg\
8r	.	.	8r	8g/	.	8b-\	.	.	.	.	.	.	.	.	.	.	.	.	.	.	.	.	.	.
8E-\	.	.	8B-/	8r	.	8r	.	.	.	.	.	.	.	.	.	.	.	.	.	4G\	.	4b-\	.	4gg\
8r	.	.	8r	8g/	.	8b-\	.	.	.	.	.	.	.	.	.	.	.	.	.	.	.	.	.	.
!	!	!	!LO:LB:g=original	!	!	!	!	!	!	!	!	!	!	!	!	!	!	!	!	!LO:LB:g=original	!	!	!	!
=4	=4	=4	=4	=4	=4	=4	=4	=4	=4	=4	=4	=4	=4	=4	=4	=4	=4	=4	=4	=4	=4	=4	=4	=4
8E-\	.	.	8c/	8r	.	8r	.	2.r	.	2.r	.	2.r	.	.	.	2.ryy	2.ryy	.	2.r	4A-\	2.r	4cc\	.	4aa-\
8r	.	.	8r	8a-/	.	8cc\	.	.	.	.	.	.	.	.	.	.	.	.	.	.	.	.	.	.
8E-\	.	.	8B-/	8r	.	8r	.	.	.	.	.	.	.	.	.	.	.	.	.	4G\	.	4b-\	.	4gg\
8r	.	.	8r	8g/	.	8b-\	.	.	.	.	.	.	.	.	.	.	.	.	.	.	.	.	.	.
!	!	!	!	!	!	!	!	!	!	!	!	!	!	!	!	!	!	!	!	!	!	!	!	!LO:TX:a:t=g
4r	.	.	4r	4r	.	4r	.	.	.	.	.	.	.	.	.	.	.	.	.	8G\L	.	8ee-\L	.	8gg\L
.	.	.	.	.	.	.	.	.	.	.	.	.	.	.	.	.	.	.	.	8A-\J	.	8ff\J	.	8aa-\J
!LO:LB:g=original	!	!	!	!	!	!	!	!	!	!	!	!	!	!	!	!	!	!	!	!	!	!	!	!
=5	=5	=5	=5	=5	=5	=5	=5	=5	=5	=5	=5	=5	=5	=5	=5	=5	=5	=5	=5	=5	=5	=5	=5	=5
*	*	*	*	*	*	*	*	*	*	*	*	*	*	*	*	*	*	*	*	*2\right	*	*2\right	*	*2\right
8E-\	.	.	8e-\	8r	.	8r	.	2.r	.	2.r	.	2.r	.	0.r	.	2.ryy	2.ryy	0.r	2.r	2B-\	2.r	2gg\	.	2bb-\
8r	.	.	8r	8g/	.	8b-\	.	.	.	.	.	.	.	.	.	.	.	.	.	.	.	.	.	.
8G\	.	.	8g\	8r	.	8r	.	.	.	.	.	.	.	.	.	.	.	.	.	.	.	.	.	.
8r	.	.	8r	8g/	.	8b-\	.	.	.	.	.	.	.	.	.	.	.	.	.	.	.	.	.	.
8E-\	.	.	8e-\	8r	.	8r	.	.	.	.	.	.	.	.	.	.	.	.	.	4c\	.	4aa-\	.	4ccc\
8r	.	.	8r	8a-/	.	8cc\	.	.	.	.	.	.	.	.	.	.	.	.	.	.	.	.	.	.
=6	=6	=6	=6	=6	=6	=6	=6	=6	=6	=6	=6	=6	=6	=6	=6	=6	=6	=6	=6	=6	=6	=6	=6	=6
!	!	!	!	!	!	!	!	!	!	!	!	!	!	!	!	!	!	!	!	!	!	!	!	!LO:TX:a:t=as
8BB-/	.	.	8B-/	8r	.	8r	.	2.r	.	2.r	.	2.r	.	.	.	2.ryy	2.ryy	.	2.r	2A-\	2.r	2ff\	.	2aa-\
8r	.	.	8r	8f/	.	8a-/	.	.	.	.	.	.	.	.	.	.	.	.	.	.	.	.	.	.
8D/	.	.	8d\	8r	.	8r	.	.	.	.	.	.	.	.	.	.	.	.	.	.	.	.	.	.
8r	.	.	8r	8f/	.	8a-/	.	.	.	.	.	.	.	.	.	.	.	.	.	.	.	.	.	.
8BB-/	.	.	8B-/	8r	.	8r	.	.	.	.	.	.	.	.	.	.	.	.	.	4B-\	.	4gg\	.	4bb-\
8r	.	.	8r	8g/	.	8b-/	.	.	.	.	.	.	.	.	.	.	.	.	.	.	.	.	.	.
=7	=7	=7	=7	=7	=7	=7	=7	=7	=7	=7	=7	=7	=7	=7	=7	=7	=7	=7	=7	=7	=7	=7	=7	=7
8E-\	.	.	8e-\	8r	.	8r	.	2.r	.	2.r	.	2.r	.	.	.	2.ryy	2.ryy	.	2.r	8G\L	2.r	8ee-\L	.	8gg\L
8r	.	.	8r	8e-/	.	8g/	.	.	.	.	.	.	.	.	.	.	.	.	.	16F\L	.	16dd\L	.	16ff\L
.	.	.	.	.	.	.	.	.	.	.	.	.	.	.	.	.	.	.	.	16G\JJ	.	16ee-\JJ	.	16gg\JJ
8D\	.	.	8d\	8r	.	8r	.	.	.	.	.	.	.	.	.	.	.	.	.	4A-\	.	4ff\	.	4aa-\
8r	.	.	8r	8f/	.	8a-/	.	.	.	.	.	.	.	.	.	.	.	.	.	.	.	.	.	.
8E-\	.	.	8e-\	8r	.	8r	.	.	.	.	.	.	.	.	.	.	.	.	.	4G\	.	4ee-\	.	4gg\
8r	.	.	8r	8e-/	.	8g/	.	.	.	.	.	.	.	.	.	.	.	.	.	.	.	.	.	.
!	!	!	!	!LO:LB:g=original	!	!LO:LB:g=original	!	!	!	!	!	!	!	!	!	!	!	!	!	!	!	!LO:LB:g=original	!	!LO:LB:g=original
=8	=8	=8	=8	=8	=8	=8	=8	=8	=8	=8	=8	=8	=8	=8	=8	=8	=8	=8	=8	=8	=8	=8	=8	=8
4BB-/	.	.	4B-/	4d/	.	4f/	.	2.r	.	2.r	.	2.r	.	.	.	2.ryy	2.ryy	.	2.r	8B-\L	2.r	8dd\L	.	8bb-\L
.	.	.	.	.	.	.	.	.	.	.	.	.	.	.	.	.	.	.	.	8B-\	.	8bb-\	.	8bb-\
4r	.	.	4r	4r	.	4r	.	.	.	.	.	.	.	.	.	.	.	.	.	8c\	.	8aa\	.	8ccc\
.	.	.	.	.	.	.	.	.	.	.	.	.	.	.	.	.	.	.	.	8d\	.	8aa-X\	.	8ddd\
4r	.	.	4r	4r	.	4r	.	.	.	.	.	.	.	.	.	.	.	.	.	8e-\	.	8gg\	.	8eee-\
.	.	.	.	.	.	.	.	.	.	.	.	.	.	.	.	.	.	.	.	8f\J	.	8ff\J	.	8fff\J
=9	=9	=9	=9	=9	=9	=9	=9	=9	=9	=9	=9	=9	=9	=9	=9	=9	=9	=9	=9	=9	=9	=9	=9	=9
!	!	!	!	!	!	!	!	!	!	!	!	!	!	!	!	!	!	!	!	!LO:TX:a:t=4	!	!LO:TX:a:t=19.	!	!LO:TX:a:t=52.
8E-\	.	.	8B-/	8r	.	8r	.	2.r	.	2.r	.	2.r	.	4b-\	Et	2.ryy	2.ryy	0.r	2.r	0.r	2.r	2.r	.	2.r
8r	.	.	8r	8g/	.	8b-\	.	.	.	.	.	.	.	.	.	.	.	.	.	.	.	.	.	.
8E-\	.	.	8B-/	8r	.	8r	.	.	.	.	.	.	.	4b-\	in-	.	.	.	.	.	.	.	.	.
8r	.	.	8r	8g/	.	8b-\	.	.	.	.	.	.	.	.	.	.	.	.	.	.	.	.	.	.
8E-\	.	.	8B-/	8r	.	8r	.	.	.	.	.	.	.	4b-\	-car-	.	.	.	.	.	.	.	.	.
8r	.	.	8r	8g/	.	8b-\	.	.	.	.	.	.	.	.	.	.	.	.	.	.	.	.	.	.
!	!	!	!LO:LB:g=original	!	!	!	!	!	!	!	!	!	!	!	!	!	!	!	!	!	!	!	!	!
=10	=10	=10	=10	=10	=10	=10	=10	=10	=10	=10	=10	=10	=10	=10	=10	=10	=10	=10	=10	=10	=10	=10	=10	=10
8E-\	.	.	8c/	8r	.	8r	.	2.r	.	2.r	.	2.r	.	8.cc\	-na-	2.ryy	2.ryy	.	2.r	.	2.r	2.r	.	2.r
8r	.	.	8r	8a-/	.	8cc\	.	.	.	.	.	.	.	.	.	.	.	.	.	.	.	.	.	.
.	.	.	.	.	.	.	.	.	.	.	.	.	.	16cc\	-tus	.	.	.	.	.	.	.	.	.
8E-\	.	.	8B-/	8r	.	8r	.	.	.	.	.	.	.	4b-\	est	.	.	.	.	.	.	.	.	.
8r	.	.	8r	8g/	.	8b-\	.	.	.	.	.	.	.	.	.	.	.	.	.	.	.	.	.	.
4r	.	.	4r	8e-/L	.	8g/L	.	.	.	.	.	.	.	4r	.	.	.	.	.	.	.	.	.	.
.	.	.	.	8f/J	.	8a-/J	.	.	.	.	.	.	.	.	.	.	.	.	.	.	.	.	.	.
!LO:LB:g=original	!	!	!	!	!	!	!	!	!	!	!	!	!	!	!	!	!	!	!	!	!	!	!	!
=11	=11	=11	=11	=11	=11	=11	=11	=11	=11	=11	=11	=11	=11	=11	=11	=11	=11	=11	=11	=11	=11	=11	=11	=11
8E-\	.	.	8B-/	8r	.	8r	.	2.r	.	2.r	.	2.r	.	8.b-\	de	2.ryy	2.ryy	.	2.r	.	2.r	2.r	.	2.r
8r	.	.	8r	8g/	.	8b-\	.	.	.	.	.	.	.	.	.	.	.	.	.	.	.	.	.	.
.	.	.	.	.	.	.	.	.	.	.	.	.	.	16b-\	spi-	.	.	.	.	.	.	.	.	.
8E-\	.	.	8B-/	8r	.	8r	.	.	.	.	.	.	.	4b-\	-ri-	.	.	.	.	.	.	.	.	.
8r	.	.	8r	8g/	.	8b-\	.	.	.	.	.	.	.	.	.	.	.	.	.	.	.	.	.	.
8E-\	.	.	8B-/	8r	.	8r	.	.	.	.	.	.	.	4b-\	-tu	.	.	.	.	.	.	.	.	.
8r	.	.	8r	8g/	.	8b-\	.	.	.	.	.	.	.	.	.	.	.	.	.	.	.	.	.	.
=12	=12	=12	=12	=12	=12	=12	=12	=12	=12	=12	=12	=12	=12	=12	=12	=12	=12	=12	=12	=12	=12	=12	=12	=12
8E-\	.	.	8c/	8r	.	8r	.	2.r	.	2.r	.	2.r	.	4cc\	sa[n]-	2.ryy	2.ryy	.	2.r	.	2.r	2.r	.	2.r
8r	.	.	8r	8a-/	.	8cc\	.	.	.	.	.	.	.	.	.	.	.	.	.	.	.	.	.	.
8E-\	.	.	8B-/	8r	.	8r	.	.	.	.	.	.	.	4b-\	-cto	.	.	.	.	.	.	.	.	.
8r	.	.	8r	8g/	.	8b-\	.	.	.	.	.	.	.	.	.	.	.	.	.	.	.	.	.	.
4r	.	.	4r	4r	.	4r	.	.	.	.	.	.	.	4r	.	.	.	.	.	.	.	.	.	.
!	!	!	!	!LO:LB:g=original	!	!LO:LB:g=original	!	!	!	!	!	!	!	!	!	!	!	!	!	!	!	!	!	!
=13	=13	=13	=13	=13	=13	=13	=13	=13	=13	=13	=13	=13	=13	=13	=13	=13	=13	=13	=13	=13	=13	=13	=13	=13
*	*	*	*	*	*	*	*	*	*	*	*	*	*	*2\right	*	*	*	*	*	*	*	*	*	*
8BB-/	.	.	8B-/	8r	.	8r	.	2.r	.	2.r	.	2.r	.	2b-\	ex	2.ryy	2.ryy	0.r	2.r	2B-\	2.r	2.r	.	2.r
8r	.	.	8r	8d/	.	8b-\	.	.	.	.	.	.	.	.	.	.	.	.	.	.	.	.	.	.
8B-\	.	.	8b-\	8r	.	8r	.	.	.	.	.	.	.	.	.	.	.	.	.	.	.	.	.	.
8r	.	.	8r	8d/	.	8b-\L	.	.	.	.	.	.	.	.	.	.	.	.	.	.	.	.	.	.
8B-\	.	.	8b-\	8an\L	.	8cc\	.	.	.	.	.	.	.	8cc\L	ma-	.	.	.	.	8B-\L	.	.	.	.
8r	.	.	8r	8b-\J	.	8dd\J	.	.	.	.	.	.	.	8dd\J	.	.	.	.	.	8d\J	.	.	.	.
!	!	!	!	!	!	!	!	!	!	!	!	!	!	!	!	!	!	!	!	!LO:LB:g=original	!	!	!	!
=14	=14	=14	=14	=14	=14	=14	=14	=14	=14	=14	=14	=14	=14	=14	=14	=14	=14	=14	=14	=14	=14	=14	=14	=14
8F\	.	.	8f\	8r	.	8r	.	2.r	.	2.r	.	2.r	.	16dd\LL	-ri-	2.ryy	2.ryy	.	2.r	16d\LL	2.r	2.r	.	2.r
.	.	.	.	.	.	.	.	.	.	.	.	.	.	16ee-\	.	.	.	.	.	16e-\	.	.	.	.
8r	.	.	8r	8cc\	.	8ee-\	.	.	.	.	.	.	.	16bn\	.	.	.	.	.	16Bn\	.	.	.	.
.	.	.	.	.	.	.	.	.	.	.	.	.	.	16cc\JJ	.	.	.	.	.	16c\JJ	.	.	.	.
8F\	.	.	8f\	8r	.	8r	.	.	.	.	.	.	.	4cc\	-a	.	.	.	.	4c\	.	.	.	.
8r	.	.	8r	8cc\	.	8ee-\	.	.	.	.	.	.	.	.	.	.	.	.	.	.	.	.	.	.
8F\	.	.	8f\	8r	.	8r	.	.	.	.	.	.	.	4f/	ma-	.	.	.	.	4F\	.	.	.	.
8r	.	.	8r	8cc\	.	8ee-\	.	.	.	.	.	.	.	.	.	.	.	.	.	.	.	.	.	.
!	!	!	!	!	!	!	!	!	!	!	!	!	!	!LO:LB:g=original	!	!	!	!	!	!	!	!	!	!
=15	=15	=15	=15	=15	=15	=15	=15	=15	=15	=15	=15	=15	=15	=15	=15	=15	=15	=15	=15	=15	=15	=15	=15	=15
8F\	.	.	8f\	8r	.	8r	.	2.r	.	2.r	.	2.r	.	2dd\	-ri-	2.ryy	2.ryy	.	2.r	2c\	2.r	2.r	.	2.r
8r	.	.	8r	8an\	.	8cc\	.	.	.	.	.	.	.	.	.	.	.	.	.	.	.	.	.	.
8F\	.	.	8f\	8r	.	8r	.	.	.	.	.	.	.	.	.	.	.	.	.	.	.	.	.	.
8r	.	.	8r	8a\	.	8cc\L	.	.	.	.	.	.	.	.	.	.	.	.	.	.	.	.	.	.
8F\	.	.	8f\	8b-\L	.	8dd\	.	.	.	.	.	.	.	8dd\L	-a	.	.	.	.	8d\L	.	.	.	.
8r	.	.	8r	8cc\J	.	8ee-\J	.	.	.	.	.	.	.	8ee-\J	.	.	.	.	.	8e-\J	.	.	.	.
!LO:LB:g=original	!	!	!LO:LB:g=original	!	!	!	!	!	!	!	!	!	!	!	!	!	!	!	!	!	!	!	!	!
=16	=16	=16	=16	=16	=16	=16	=16	=16	=16	=16	=16	=16	=16	=16	=16	=16	=16	=16	=16	=16	=16	=16	=16	=16
8B-\	.	.	8b-\	8r	.	8r	.	2.r	.	2.r	.	2.r	.	16een\LL	vir-	2.ryy	2.ryy	.	2.r	16en\LL	2.r	2.r	.	2.r
.	.	.	.	.	.	.	.	.	.	.	.	.	.	16ff\JJ	.	.	.	.	.	16f\	.	.	.	.
8r	.	.	8r	8dd\	.	8ff\	.	.	.	.	.	.	.	16cc#X\LL	-gi-	.	.	.	.	16c#X\	.	.	.	.
.	.	.	.	.	.	.	.	.	.	.	.	.	.	16dd\JJ	.	.	.	.	.	16d\JJ	.	.	.	.
8B-\	.	.	8B-/	8r	.	8r	.	.	.	.	.	.	.	4dd\	-ne	.	.	.	.	4d\	.	.	.	.
8r	.	.	8r	8dd\	.	8ff\	.	.	.	.	.	.	.	.	.	.	.	.	.	.	.	.	.	.
8B-\	.	.	8b-\	8r	.	8r	.	.	.	.	.	.	.	4dd\	et	.	.	.	.	4d\	.	.	.	.
8r	.	.	8r	8dd\	.	8ff\	.	.	.	.	.	.	.	.	.	.	.	.	.	.	.	.	.	.
!	!	!	!	!LO:LB:g=original	!	!	!	!	!	!	!	!	!	!	!	!	!	!	!	!	!	!	!	!
=17	=17	=17	=17	=17	=17	=17	=17	=17	=17	=17	=17	=17	=17	=17	=17	=17	=17	=17	=17	=17	=17	=17	=17	=17
8BB-/	.	.	8B-/	8r	.	8r	.	2.r	.	2.r	.	2.r	.	8.ff\L	ho-	2.ryy	2.ryy	0.r	2.r	8.f\L	2.r	2.r	.	2.r
8r	.	.	8r	8f/	.	8dd\	.	.	.	.	.	.	.	.	.	.	.	.	.	.	.	.	.	.
.	.	.	.	.	.	.	.	.	.	.	.	.	.	16dd\K	.	.	.	.	.	16d\Jk	.	.	.	.
8D\	.	.	8d\	8r	.	8r	.	.	.	.	.	.	.	8b-\J	.	.	.	.	.	8B-X\L	.	.	.	.
8r	.	.	8r	8f/	.	8dd\	.	.	.	.	.	.	.	8dd\	-mo	.	.	.	.	8d\	.	.	.	.
8F\	.	.	8f\	8r	.	8r	.	.	.	.	.	.	.	8f/	fac-	.	.	.	.	8F\	.	.	.	.
8r	.	.	8r	8e-/	.	8cc\	.	.	.	.	.	.	.	8an/	-tus.	.	.	.	.	8An\J	.	.	.	.
!	!	!	!	!	!	!LO:LB:g=original	!	!	!	!	!	!	!	!	!	!	!	!	!	!	!	!	!	!
=18	=18	=18	=18	=18	=18	=18	=18	=18	=18	=18	=18	=18	=18	=18	=18	=18	=18	=18	=18	=18	=18	=18	=18	=18
4B-\	.	.	4b-\	8d/L	.	16b-\LL	.	2.r	.	2.r	.	2.r	.	2b-\	est	2.ryy	2.ryy	.	2.r	4B-\	2.r	2.r	.	2.r
.	.	.	.	.	.	16an\	.	.	.	.	.	.	.	.	.	.	.	.	.	.	.	.	.	.
.	.	.	.	8f/J	.	16cc\	.	.	.	.	.	.	.	.	.	.	.	.	.	.	.	.	.	.
.	.	.	.	.	.	16b-\JJ	.	.	.	.	.	.	.	.	.	.	.	.	.	.	.	.	.	.
4BB-/	.	.	4B-/	4d/	.	16dd\LL	.	.	.	.	.	.	.	.	.	.	.	.	.	4r	.	.	.	.
.	.	.	.	.	.	16cc\	.	.	.	.	.	.	.	.	.	.	.	.	.	.	.	.	.	.
.	.	.	.	.	.	16ee-\	.	.	.	.	.	.	.	.	.	.	.	.	.	.	.	.	.	.
.	.	.	.	.	.	16dd\JJ	.	.	.	.	.	.	.	.	.	.	.	.	.	.	.	.	.	.
4r	.	.	4r	4r	.	16ff\LL	.	.	.	.	.	.	.	8r	.	.	.	.	.	4r	.	.	.	.
.	.	.	.	.	.	16ee-\	.	.	.	.	.	.	.	.	.	.	.	.	.	.	.	.	.	.
.	.	.	.	.	.	16gg\	.	.	.	.	.	.	.	8ff\	et	.	.	.	.	.	.	.	.	.
.	.	.	.	.	.	16ff\JJ	.	.	.	.	.	.	.	.	.	.	.	.	.	.	.	.	.	.
!	!	!	!	!	!	!	!	!	!	!	!	!	!	!	!	!	!	!	!	!LO:LB:g=original	!	!	!	!
=19	=19	=19	=19	=19	=19	=19	=19	=19	=19	=19	=19	=19	=19	=19	=19	=19	=19	=19	=19	=19	=19	=19	=19	=19
8BB-/	.	.	8B-/	8r	.	8r	.	2.r	.	2.r	.	2.r	.	8.ff\L	ho-	2.ryy	2.ryy	.	2.r	8.f\L	2.r	2.r	.	2.r
8r	.	.	8r	8f/	.	8dd\	.	.	.	.	.	.	.	.	.	.	.	.	.	.	.	.	.	.
.	.	.	.	.	.	.	.	.	.	.	.	.	.	16dd\K	.	.	.	.	.	16d\Jk	.	.	.	.
8D/	.	.	8d\	8r	.	8r	.	.	.	.	.	.	.	8b-\J	.	.	.	.	.	8B-X\L	.	.	.	.
8r	.	.	8r	8f/	.	8dd\	.	.	.	.	.	.	.	8dd\	-mo	.	.	.	.	8d\	.	.	.	.
8F\	.	.	8f\	8r	.	8r	.	.	.	.	.	.	.	8f/	fac-	.	.	.	.	8F\	.	.	.	.
8r	.	.	8r	8e-/	.	8cc\	.	.	.	.	.	.	.	8a-/	-tus	.	.	.	.	8An\J	.	.	.	.
=20	=20	=20	=20	=20	=20	=20	=20	=20	=20	=20	=20	=20	=20	=20	=20	=20	=20	=20	=20	=20	=20	=20	=20	=20
8B-\	.	.	8b-\	8r	.	8r	.	2.r	.	2.r	.	2.r	.	4b-\	est.	2.ryy	2.ryy	.	2.r	4B-\	2.r	2.r	.	2.r
8r	.	.	8r	8d/	.	8b-\	.	.	.	.	.	.	.	.	.	.	.	.	.	.	.	.	.	.
8BB-/	.	.	8B-/	8r	.	8r	.	.	.	.	.	.	.	4r	.	.	.	.	.	4r	.	.	.	.
8r	.	.	8r	8d/	.	8b-\	.	.	.	.	.	.	.	.	.	.	.	.	.	.	.	.	.	.
4r	.	.	4r	4r	.	4r	.	.	.	.	.	.	.	4ff\	et	.	.	.	.	4r	.	.	.	.
=21	=21	=21	=21	=21	=21	=21	=21	=21	=21	=21	=21	=21	=21	=21	=21	=21	=21	=21	=21	=21	=21	=21	=21	=21
!	!	!	!	!	!	!	!	!	!	!	!	!	!	!	!	!	!	!	!	!LO:TX:a:t=1	!	!	!	!
4BB-/	.	.	4B-/	8r	.	8r	.	2.r	.	2.r	.	2.r	.	2ff\	ho-	2.ryy	2.ryy	0.r	2.r	2.r	2.r	2.r	.	2.r
.	.	.	.	8d/L	.	8f/L	.	.	.	.	.	.	.	.	.	.	.	.	.	.	.	.	.	.
4r	.	.	4r	8d/	.	8f/	.	.	.	.	.	.	.	.	.	.	.	.	.	.	.	.	.	.
.	.	.	.	8d/	.	8f/	.	.	.	.	.	.	.	.	.	.	.	.	.	.	.	.	.	.
4r	.	.	4r	8B-/	.	8d/	.	.	.	.	.	.	.	8bb-\L	-mo	.	.	.	.	.	.	.	.	.
.	.	.	.	8d/J	.	8f/J	.	.	.	.	.	.	.	8ff\J	.	.	.	.	.	.	.	.	.	.
!LO:LB:g=original	!	!	!	!LO:LB:g=original	!	!	!	!	!	!	!	!	!	!	!	!	!	!	!	!	!	!	!	!
=22	=22	=22	=22	=22	=22	=22	=22	=22	=22	=22	=22	=22	=22	=22	=22	=22	=22	=22	=22	=22	=22	=22	=22	=22
4BB-/	.	.	4B-/	8r	.	8r	.	2.r	.	2.r	.	2.r	.	2dd\	ho-	2.ryy	2.ryy	.	2.r	2d\	2.r	2.r	.	2.r
.	.	.	.	8d/L	.	8f/L	.	.	.	.	.	.	.	.	.	.	.	.	.	.	.	.	.	.
4r	.	.	4r	8d/	.	8f/	.	.	.	.	.	.	.	.	.	.	.	.	.	.	.	.	.	.
.	.	.	.	8d/	.	8f/	.	.	.	.	.	.	.	.	.	.	.	.	.	.	.	.	.	.
4r	.	.	4r	8B-/	.	8d/	.	.	.	.	.	.	.	8ff\L	-mo	.	.	.	.	8f\L	.	.	.	.
.	.	.	.	8d/J	.	8f/J	.	.	.	.	.	.	.	8dd\J	.	.	.	.	.	8d\J	.	.	.	.
!	!	!	!LO:LB:g=original	!	!	!LO:LB:g=original	!	!	!	!	!	!	!	!LO:LB:g=original	!	!	!	!	!	!	!	!	!	!
=23	=23	=23	=23	=23	=23	=23	=23	=23	=23	=23	=23	=23	=23	=23	=23	=23	=23	=23	=23	=23	=23	=23	=23	=23
*	*	*	*	*tremolo	*	*tremolo	*	*	*	*	*	*	*	*	*	*	*	*	*	*	*	*	*	*
4BB-/	.	.	4B-/	8B-/L	.	8d/L	.	2.r	.	2.r	.	2.r	.	4.b-\	Fa-	2.ryy	2.ryy	.	2.r	4.B-\	2.r	2.r	.	2.r
.	.	.	.	8d/	.	8f/	.	.	.	.	.	.	.	.	.	.	.	.	.	.	.	.	.	.
4D/	.	.	4d/	8B-/	.	8d/	.	.	.	.	.	.	.	.	.	.	.	.	.	.	.	.	.	.
!	!	!	!	!	!	!	!	!	!	!	!	!	!	!LO:TX:t=P:problem=mixed beam	!	!	!	!	!	!	!	!	!	!
.	.	.	.	8d/J	.	8f/J	.	.	.	.	.	.	.	8dd\L	-ctus	.	.	.	.	8d\L	.	.	.	.
*	*	*	*	*Xtremolo	*	*Xtremolo	*	*	*	*	*	*	*	*	*	*	*	*	*	*	*	*	*	*
4F/	.	.	4f\	8c/L	.	8e-/L	.	.	.	.	.	.	.	8f/J	.	.	.	.	.	8F\	.	.	.	.
.	.	.	.	8An/J	.	8f/J	.	.	.	.	.	.	.	8an\	.	.	.	.	.	8An\J	.	.	.	.
=24	=24	=24	=24	=24	=24	=24	=24	=24	=24	=24	=24	=24	=24	=24	=24	=24	=24	=24	=24	=24	=24	=24	=24	=24
8B-\	.	.	8b-\	8r	.	8r	.	2.r	.	2.r	.	2.r	.	4b-\	est	2.ryy	2.ryy	.	2.r	4B-\	2.r	2.r	.	2.r
8r	.	.	8r	8B-/	.	8d/	.	.	.	.	.	.	.	.	.	.	.	.	.	.	.	.	.	.
8B-\	.	.	8b-\	8r	.	8r	.	.	.	.	.	.	.	4r	.	.	.	.	.	4r	.	.	.	.
8r	.	.	8r	8B-/	.	8d/	.	.	.	.	.	.	.	.	.	.	.	.	.	.	.	.	.	.
8B-\	.	.	8b-\	8r	.	8r	.	.	.	.	.	.	.	4ff\	et	.	.	.	.	4r	.	.	.	.
8r	.	.	8r	8B-/	.	8d/	.	.	.	.	.	.	.	.	.	.	.	.	.	.	.	.	.	.
=25	=25	=25	=25	=25	=25	=25	=25	=25	=25	=25	=25	=25	=25	=25	=25	=25	=25	=25	=25	=25	=25	=25	=25	=25
!	!	!	!	!	!	!	!	!	!	!	!	!	!	!	!	!	!	!	!	!LO:TX:a:t=1	!	!	!	!
4BB-/	.	.	4B-/	8r	.	8r	.	2.r	.	2.r	.	2.r	.	2ff\	ho-	2.ryy	2.ryy	0.r	2.r	2.r	2.r	2.r	.	2.r
.	.	.	.	8d/L	.	8f/L	.	.	.	.	.	.	.	.	.	.	.	.	.	.	.	.	.	.
4r	.	.	4r	8d/	.	8f/	.	.	.	.	.	.	.	.	.	.	.	.	.	.	.	.	.	.
.	.	.	.	8d/	.	8f/	.	.	.	.	.	.	.	.	.	.	.	.	.	.	.	.	.	.
4r	.	.	4r	8B-/	.	8d/	.	.	.	.	.	.	.	8bb-\L	-mo	.	.	.	.	.	.	.	.	.
.	.	.	.	8d/J	.	8f/J	.	.	.	.	.	.	.	8ff\J	.	.	.	.	.	.	.	.	.	.
!	!	!	!	!	!	!	!	!	!	!	!	!	!	!	!	!	!	!	!	!LO:LB:g=original	!	!	!	!
=26	=26	=26	=26	=26	=26	=26	=26	=26	=26	=26	=26	=26	=26	=26	=26	=26	=26	=26	=26	=26	=26	=26	=26	=26
4BB-/	.	.	4B-/	8r	.	8r	.	2.r	.	2.r	.	2.r	.	2dd\	ho-	2.ryy	2.ryy	.	2.r	2d\	2.r	2.r	.	2.r
.	.	.	.	8d/L	.	8f/L	.	.	.	.	.	.	.	.	.	.	.	.	.	.	.	.	.	.
4r	.	.	4r	8d/	.	8f/	.	.	.	.	.	.	.	.	.	.	.	.	.	.	.	.	.	.
.	.	.	.	8d/	.	8f/	.	.	.	.	.	.	.	.	.	.	.	.	.	.	.	.	.	.
4r	.	.	4r	8B-/	.	8d/	.	.	.	.	.	.	.	8ff\L	-mo	.	.	.	.	8f\L	.	.	.	.
.	.	.	.	8d/J	.	8f/J	.	.	.	.	.	.	.	8dd\J	.	.	.	.	.	8d\J	.	.	.	.
!	!	!	!	!LO:LB:g=original	!	!	!	!	!	!	!	!	!	!	!	!	!	!	!	!	!	!	!	!
=27	=27	=27	=27	=27	=27	=27	=27	=27	=27	=27	=27	=27	=27	=27	=27	=27	=27	=27	=27	=27	=27	=27	=27	=27
4BB-/	.	.	4B-/	8r	.	8r	.	2.r	.	2.r	.	2.r	.	4.b-\	fa-	2.ryy	2.ryy	.	2.r	4.B-\	2.r	2.r	.	2.r
.	.	.	.	8d/	.	8f/	.	.	.	.	.	.	.	.	.	.	.	.	.	.	.	.	.	.
4D/	.	.	4d\	8r	.	8r	.	.	.	.	.	.	.	.	.	.	.	.	.	.	.	.	.	.
!	!	!	!	!	!	!	!	!	!	!	!	!	!	!LO:TX:t=P:problem=mixed beam	!	!	!	!	!	!	!	!	!	!
.	.	.	.	8d/	.	8f/	.	.	.	.	.	.	.	8dd\L	.	.	.	.	.	8d\L	.	.	.	.
4F/	.	.	4f\	8r	.	8r	.	.	.	.	.	.	.	8f/J	.	.	.	.	.	8F\	.	.	.	.
.	.	.	.	8c/	.	8e-/	.	.	.	.	.	.	.	8an\	-ctus	.	.	.	.	8An\J	.	.	.	.
=28	=28	=28	=28	=28	=28	=28	=28	=28	=28	=28	=28	=28	=28	=28	=28	=28	=28	=28	=28	=28	=28	=28	=28	=28
*	*	*	*	*	*	*	*	*	*	*	*	*	*	*	*	*	*	*	*	*	*2\right	*	*	*
!	!	!	!	!	!	!	!	!	!	!	!	!	!	!	!	!	!	!	!	!	!	!	!LO:DY:t=pia	!
4B-\	3	.	4b-\	4r	.	4r	.	2.r	.	2.r	.	2.r	.	4b-\	est	2.ryy	2.ryy	.	2.r	4B-\	2.b-\	2.dd\	p	2.r
4r	.	.	4r	4b-\	.	4dd\	.	.	.	.	.	.	.	4r	.	.	.	.	.	2d\	.	.	.	.
4r	.	.	4r	4b-\	.	4dd\	.	.	.	.	.	.	.	4r	.	.	.	.	.	.	.	.	.	.
!	!	!	!	!	!	!LO:LB:g=original	!	!	!	!	!	!	!	!	!	!	!	!	!	!	!	!	!	!
=29	=29	=29	=29	=29	=29	=29	=29	=29	=29	=29	=29	=29	=29	=29	=29	=29	=29	=29	=29	=29	=29	=29	=29	=29
!	!	!	!	!	!	!	!	!	!	!	!	!	!	!LO:TX:a:t=14.	!	!	!	!	!	!	!	!	!	!
4G\	5	.	4g\	4r	.	4r	.	2.r	.	2.r	.	2.r	.	2.r	.	2.ryy	2.ryy	0.r	2.r	2.d\	2.b-\	2.dd\	.	2.r
4r	.	.	4r	4b-\	.	4dd\	.	.	.	.	.	.	.	.	.	.	.	.	.	.	.	.	.	.
4r	.	.	4r	4b-\	.	4dd\	.	.	.	.	.	.	.	.	.	.	.	.	.	.	.	.	.	.
!LO:PB:g=original	!	!	!	!	!	!	!	!	!	!	!	!	!	!	!	!	!	!	!	!	!	!	!	!
=30	=30	=30	=30	=30	=30	=30	=30	=30	=30	=30	=30	=30	=30	=30	=30	=30	=30	=30	=30	=30	=30	=30	=30	=30
4E-\	4	.	4e-\	4r	.	4r	.	2.r	.	2.r	.	2.r	.	2.r	.	2.ryy	2.ryy	.	2.r	2.c\	2.b-\	2.cc\	.	2.r
4r	.	.	4r	4b-\	.	4cc\	.	.	.	.	.	.	.	.	.	.	.	.	.	.	.	.	.	.
4r	.	.	4r	4b-\	.	4cc\	.	.	.	.	.	.	.	.	.	.	.	.	.	.	.	.	.	.
=31	=31	=31	=31	=31	=31	=31	=31	=31	=31	=31	=31	=31	=31	=31	=31	=31	=31	=31	=31	=31	=31	=31	=31	=31
4F\	5	.	4f\	4r	.	4r	.	2.r	.	2.r	.	2.r	.	2.r	.	2.ryy	2.ryy	.	2.r	2.c\	2.a\	2.cc\	.	2.r
4r	.	.	4r	4an/	.	4cc\	.	.	.	.	.	.	.	.	.	.	.	.	.	.	.	.	.	.
4r	.	.	4r	4a/	.	4cc\	.	.	.	.	.	.	.	.	.	.	.	.	.	.	.	.	.	.
!	!	!	!LO:LB:g=original	!	!	!	!	!	!	!	!	!	!	!	!	!	!	!	!	!	!	!	!	!
=32	=32	=32	=32	=32	=32	=32	=32	=32	=32	=32	=32	=32	=32	=32	=32	=32	=32	=32	=32	=32	=32	=32	=32	=32
4B-\	8	.	4b-\	4b-\	.	4b-\	.	2.r	.	2.r	.	2.r	.	2.r	.	2.ryy	2.ryy	.	2.r	4B-\	4b-\	4b-\	.	2.r
8B-'\L	.	.	8b-\L	4r	.	4r	.	.	.	.	.	.	.	.	.	.	.	.	.	4r	4r	4r	.	.
8A-X'\	.	.	8a-X\	.	.	.	.	.	.	.	.	.	.	.	.	.	.	.	.	.	.	.	.	.
8G'\	.	.	8g\	4r	.	4r	.	.	.	.	.	.	.	.	.	.	.	.	.	4r	4r	4r	.	.
8F'\J	.	.	8f\J	.	.	.	.	.	.	.	.	.	.	.	.	.	.	.	.	.	.	.	.	.
=33	=33	=33	=33	=33	=33	=33	=33	=33	=33	=33	=33	=33	=33	=33	=33	=33	=33	=33	=33	=33	=33	=33	=33	=33
*2\right	*	*	*2\right	*	*	*	*	*2\right	*	*2\right	*	*	*	*	*	*	*	*	*	*	*	*	*	*
!	!	!	!	!LO:TX:a:t=2	!	!LO:TX:a:t=2.	!	!	!	!	!	!	!	!	!	!	!	!	!	!	!LO:TX:a:t=9.	!LO:TX:a:t=9	!	!
2G\	3	.	2b-\	1.r	.	1.r	.	2G\	Cru-	2B-\	Cru-	2.r	.	2.r	.	2.ryy	2.ryy	8e-/L	8ee-\L	2B-\	0.r	0.r	.	2.r
.	.	.	.	.	.	.	.	.	.	.	.	.	.	.	.	.	.	16e-/L	16ee-\L	.	.	.	.	.
.	.	.	.	.	.	.	.	.	.	.	.	.	.	.	.	.	.	16e-/JJ	16ee-\JJ	.	.	.	.	.
*	*	*	*	*	*	*	*	*	*	*	*	*	*	*	*	*	*	*	*2\right	*	*	*	*	*
*	*	*	*	*	*	*	*	*	*	*	*	*	*	*	*	*	*	*tremolo	*tremolo	*	*	*	*	*
!	!	!	!	!	!	!	!	!	!	!	!	!	!	!	!	!	!	!	!LO:TX:a:t=....	!	!	!	!	!
.	.	.	.	.	.	.	.	.	.	.	.	.	.	.	.	.	.	8e-/L	8ee-'\L	.	.	.	.	.
.	.	.	.	.	.	.	.	.	.	.	.	.	.	.	.	.	.	8e-/	8ee-'\	.	.	.	.	.
4G\	3	.	4b-\	.	.	.	.	4G\	-ci-	4B-\	-ci-	.	.	.	.	.	.	8e-/	8ee-'\	4B-\	.	.	.	.
.	.	.	.	.	.	.	.	.	.	.	.	.	.	.	.	.	.	8e-/J	8ee-'\J	.	.	.	.	.
*	*	*	*	*	*	*	*	*	*	*	*	*	*	*	*	*	*	*Xtremolo	*	*	*	*	*	*
!	!	!	!	!	!	!	!	!	!	!	!	!	!	!	!	!	!	!LO:LB:g=original	!	!	!	!	!	!
=34	=34	=34	=34	=34	=34	=34	=34	=34	=34	=34	=34	=34	=34	=34	=34	=34	=34	=34	=34	=34	=34	=34	=34	=34
2.A-\	3	.	2.cc\	.	.	.	.	2.A-\	-fi-	2.c\	-fi-	2.r	.	2.r	.	2.ryy	2.ryy	8e-/L	8ee-\L	2.c\	.	.	.	2.r
.	.	.	.	.	.	.	.	.	.	.	.	.	.	.	.	.	.	16e-/L	16ee-\L	.	.	.	.	.
.	.	.	.	.	.	.	.	.	.	.	.	.	.	.	.	.	.	16e-/JJ	16ee-\JJ	.	.	.	.	.
*	*	*	*	*	*	*	*	*	*	*	*	*	*	*	*	*	*	*tremolo	*	*	*	*	*	*
!	!	!	!	!	!	!	!	!	!	!	!	!	!	!	!	!	!	!	!LO:TX:a:t=....	!	!	!	!	!
.	.	.	.	.	.	.	.	.	.	.	.	.	.	.	.	.	.	8e-/L	8ee-'\L	.	.	.	.	.
.	.	.	.	.	.	.	.	.	.	.	.	.	.	.	.	.	.	8e-/	8ee-'\	.	.	.	.	.
.	.	.	.	.	.	.	.	.	.	.	.	.	.	.	.	.	.	8e-/	8ee-'\	.	.	.	.	.
.	.	.	.	.	.	.	.	.	.	.	.	.	.	.	.	.	.	8e-/J	8ee-'\J	.	.	.	.	.
*	*	*	*	*	*	*	*	*	*	*	*	*	*	*	*	*	*	*Xtremolo	*Xtremolo	*	*	*	*	*
!	!	!	!	!LO:LB:g=original	!	!	!	!	!	!	!	!	!	!	!	!	!	!	!	!	!	!	!	!
=35	=35	=35	=35	=35	=35	=35	=35	=35	=35	=35	=35	=35	=35	=35	=35	=35	=35	=35	=35	=35	=35	=35	=35	=35
2G\	3	.	2b-\	4r	.	4r	.	2G\	-xus	2B-\	-xus	2.r	.	2.r	.	2.ryy	2.ryy	2e-/	2ee-\	2B-\	.	.	.	2.r
.	.	.	.	8r	.	8r	.	.	.	.	.	.	.	.	.	.	.	.	.	.	.	.	.	.
.	.	.	.	8g/L	.	8b-/L	.	.	.	.	.	.	.	.	.	.	.	.	.	.	.	.	.	.
4r	.	.	4r	8e-/	.	8g/	.	4r	.	4r	.	.	.	.	.	.	.	4r	4r	4r	.	.	.	.
.	.	.	.	8f/J	.	8a-X/J	.	.	.	.	.	.	.	.	.	.	.	.	.	.	.	.	.	.
=36	=36	=36	=36	=36	=36	=36	=36	=36	=36	=36	=36	=36	=36	=36	=36	=36	=36	=36	=36	=36	=36	=36	=36	=36
!	!	!	!	!LO:TX:a:t=2	!	!LO:TX:a:t=2.	!	!	!	!	!	!	!	!	!	!	!	!	!	!	!	!	!	!
!	!	!	!	!	!	!	!	!	!	!	!	!	!	!	!	!	!	!LO:TX:t=P:problem=takty 36-38 zapisane repetycją	!	!	!	!	!	!
2G\	3	.	2b-\	1.r	.	1.r	.	8.G\	e-	8.B-\	e-	2.r	.	2.r	.	2.ryy	2.ryy	8e-/Lyy	8ee-\L	2B-\	.	.	.	2.r
.	.	.	.	.	.	.	.	.	.	.	.	.	.	.	.	.	.	16e-/Lyy	16ee-\L	.	.	.	.	.
.	.	.	.	.	.	.	.	16G\	-ti-	16B-\	-ti-	.	.	.	.	.	.	16e-/JJyy	16ee-\JJ	.	.	.	.	.
!	!	!	!	!	!	!	!	!	!	!	!	!	!	!	!	!	!	!	!LO:LB:g=original	!	!	!	!	!
*	*	*	*	*	*	*	*	*	*	*	*	*	*	*	*	*	*	*tremolo	*tremolo	*	*	*	*	*
!	!	!	!	!	!	!	!	!	!	!	!	!	!	!	!	!	!	!	!LO:TX:a:t=....	!	!	!	!	!
.	.	.	.	.	.	.	.	4G\	-am	4B-\	-am	.	.	.	.	.	.	8e-/Lyy	8ee-'\L	.	.	.	.	.
.	.	.	.	.	.	.	.	.	.	.	.	.	.	.	.	.	.	8e-/yy	8ee-'\	.	.	.	.	.
4G\	3	.	4b-\	.	.	.	.	4G\	pro	4B-\	pro-	.	.	.	.	.	.	8e-/yy	8ee-'\	4B-\	.	.	.	.
.	.	.	.	.	.	.	.	.	.	.	.	.	.	.	.	.	.	8e-/Jyy	8ee-'\J	.	.	.	.	.
*	*	*	*	*	*	*	*	*	*	*	*	*	*	*	*	*	*	*Xtremolo	*	*	*	*	*	*
!	!	!	!	!	!	!	!	!	!	!LO:LB:g=original	!	!	!	!	!	!	!	!LO:LB:g=original	!	!	!	!	!	!
=37	=37	=37	=37	=37	=37	=37	=37	=37	=37	=37	=37	=37	=37	=37	=37	=37	=37	=37	=37	=37	=37	=37	=37	=37
2.A-\	3	.	2.cc\	.	.	.	.	2.A-\	no-	2.c\	-no-	2.r	.	2.r	.	2.ryy	2.ryy	8e-/Lyy	8ee-\L	2.c\	0.r	0.r	.	2.r
.	.	.	.	.	.	.	.	.	.	.	.	.	.	.	.	.	.	16e-/Lyy	16ee-\L	.	.	.	.	.
.	.	.	.	.	.	.	.	.	.	.	.	.	.	.	.	.	.	16e-/JJyy	16ee-\JJ	.	.	.	.	.
*	*	*	*	*	*	*	*	*	*	*	*	*	*	*	*	*	*	*tremolo	*	*	*	*	*	*
!	!	!	!	!	!	!	!	!	!	!	!	!	!	!	!	!	!	!	!LO:TX:a:t=....	!	!	!	!	!
.	.	.	.	.	.	.	.	.	.	.	.	.	.	.	.	.	.	8e-/Lyy	8ee-'\L	.	.	.	.	.
.	.	.	.	.	.	.	.	.	.	.	.	.	.	.	.	.	.	8e-/yy	8ee-'\	.	.	.	.	.
.	.	.	.	.	.	.	.	.	.	.	.	.	.	.	.	.	.	8e-/yy	8ee-'\	.	.	.	.	.
.	.	.	.	.	.	.	.	.	.	.	.	.	.	.	.	.	.	8e-/Jyy	8ee-'\J	.	.	.	.	.
*	*	*	*	*	*	*	*	*	*	*	*	*	*	*	*	*	*	*Xtremolo	*Xtremolo	*	*	*	*	*
=38	=38	=38	=38	=38	=38	=38	=38	=38	=38	=38	=38	=38	=38	=38	=38	=38	=38	=38	=38	=38	=38	=38	=38	=38
4G\	3	.	4b-\	4r	.	4r	.	2G\	-bis,	2B-\	-bis	2.r	.	2.r	.	2.ryy	2.ryy	2e-/yy	2ee-\	2B-\	.	.	.	2.r
4r	.	.	4r	8r	.	8r	.	.	.	.	.	.	.	.	.	.	.	.	.	.	.	.	.	.
.	.	.	.	8g/L	.	8b-/L	.	.	.	.	.	.	.	.	.	.	.	.	.	.	.	.	.	.
4r	.	.	4r	8e-/	.	8g/	.	4r	.	4r	.	.	.	.	.	.	.	4ryy	4r	4r	.	.	.	.
.	.	.	.	8f/J	.	8a-/J	.	.	.	.	.	.	.	.	.	.	.	.	.	.	.	.	.	.
!LO:LB:g=original	!	!	!	!	!	!	!	!LO:LB:g=original	!	!	!	!	!	!	!	!	!	!	!	!	!	!	!	!
=39	=39	=39	=39	=39	=39	=39	=39	=39	=39	=39	=39	=39	=39	=39	=39	=39	=39	=39	=39	=39	=39	=39	=39	=39
*	*	*	*	*	*	*	*	*	*	*	*	*	*	*	*	*	*	*2\right	*	*	*	*	*	*
!	!	!	!LO:TX:a:t=4	!	!	!	!	!	!	!	!	!	!	!	!	!	!	!	!	!	!	!	!	!
8E-\	5 3	.	0.r	8r	.	8r	.	2G\	pas-	2B-\	pa-	2.r	.	2.r	.	2.ryy	2.ryy	2gg\	2bb-\	8E-\L	.	.	.	2.r
8r	.	.	.	8g/	.	8b-\	.	.	.	.	.	.	.	.	.	.	.	.	.	8D\	.	.	.	.
!	!	!	!	!	!	!LO:LB:g=original	!	!	!	!	!	!	!	!	!	!	!	!	!	!	!	!	!	!
8E-\	5 3	.	.	8r	.	8r	.	.	.	.	.	.	.	.	.	.	.	.	.	8E-\	.	.	.	.
8r	.	.	.	8g/L	.	8b-/L	.	.	.	.	.	.	.	.	.	.	.	.	.	8F\	.	.	.	.
8E-\	5 3	.	.	8e-/	.	8g/	.	8E-\L	-ſus	8G/L	-sſus	.	.	.	.	.	.	4ee-\	4gg\	8G\	.	.	.	.
!	!	!	!	!	!	!LO:TX:b:t=b	!	!	!	!	!	!	!	!	!	!	!	!	!	!	!	!	!	!
8r	.	.	.	8f/J	.	8b-/J	.	8G\J	.	8B-/J	.	.	.	.	.	.	.	.	.	8E-\J	.	.	.	.
!	!	!	!	!	!	!	!	!	!	!	!	!	!	!	!	!	!	!	!	!LO:LB:g=original	!	!	!	!
=40	=40	=40	=40	=40	=40	=40	=40	=40	=40	=40	=40	=40	=40	=40	=40	=40	=40	=40	=40	=40	=40	=40	=40	=40
8BB-/	7_	.	.	8r	.	8r	.	2F\	et	2A-/	et	2.r	.	2.r	.	2.ryy	2.ryy	2ff\	2aa-\	8BB-/L	.	.	.	2.r
8r	.	.	.	8f/	.	8a-/	.	.	.	.	.	.	.	.	.	.	.	.	.	8AAn/	.	.	.	.
8BB-/	.	.	.	8r	.	8r	.	.	.	.	.	.	.	.	.	.	.	.	.	8BB-/	.	.	.	.
8r	X	.	.	8f/L	.	8a-/L	.	.	.	.	.	.	.	.	.	.	.	.	.	8C/	.	.	.	.
8BB-/	.	.	.	8d/	.	8f/	.	8D\L	se-	8F/L	se-	.	.	.	.	.	.	4b-/	4ff\	8D/	.	.	.	.
8r	.	.	.	8f/J	.	8a-/J	.	8F\J	.	8A-/J	.	.	.	.	.	.	.	.	.	8BB-/J	.	.	.	.
=41	=41	=41	=41	=41	=41	=41	=41	=41	=41	=41	=41	=41	=41	=41	=41	=41	=41	=41	=41	=41	=41	=41	=41	=41
8E-\	3	.	.	8r	.	8r	.	2E-\	-pul-	2G/	-pul-	2.r	.	2.r	.	2.ryy	2.ryy	2.ee-\	2.gg\	8E-\L	2.r	2.r	.	2.r
8r	.	.	.	8e-/	.	8g/	.	.	.	.	.	.	.	.	.	.	.	.	.	8D\	.	.	.	.
8C/	5	.	.	8r	.	8r	.	.	.	.	.	.	.	.	.	.	.	.	.	8E-\	.	.	.	.
8r	.	.	.	8e-/	.	8g/	.	.	.	.	.	.	.	.	.	.	.	.	.	8F\	.	.	.	.
!	!	!	!	!LO:LB:g=original	!	!	!	!	!	!	!	!	!	!	!	!	!	!	!	!	!	!	!	!
8AAn/	7	.	.	8r	.	8r	.	4E-\	-tus	4G/	-tus	.	.	.	.	.	.	.	.	8G\	.	.	.	.
8r	.	.	.	8e-/	.	8g/	.	.	.	.	.	.	.	.	.	.	.	.	.	8An\J	.	.	.	.
!	!	!	!	!	!	!	!	!	!	!	!	!	!	!	!	!	!	!	!	!	!LO:PB:g=original	!	!	!
=42	=42	=42	=42	=42	=42	=42	=42	=42	=42	=42	=42	=42	=42	=42	=42	=42	=42	=42	=42	=42	=42	=42	=42	=42
4BB-/	5	.	.	4d/	.	4f/	.	4D\	est	4F/	est	2.r	.	2.r	.	2.ryy	2.ryy	4b-/	4ff\	4B-\	4r	4r	.	2.r
4BB-/	5	.	.	8r	.	8r	.	4r	.	4r	.	.	.	.	.	.	.	4r	4r	8r	8r	8r	.	.
.	.	.	.	8d/L	.	8f/L	.	.	.	.	.	.	.	.	.	.	.	.	.	8F\L	8cc\L	8ff\L	.	.
4r	.	.	.	8e-/	.	8g/	.	4r	.	4r	.	.	.	.	.	.	.	4r	4r	8G\	8b-\	8gg\	.	.
.	.	.	.	8f/J	.	8a-/J	.	.	.	.	.	.	.	.	.	.	.	.	.	8A-X\J	8a-\J	8aa-\J	.	.
=43	=43	=43	=43	=43	=43	=43	=43	=43	=43	=43	=43	=43	=43	=43	=43	=43	=43	=43	=43	=43	=43	=43	=43	=43
*	*	*	*	*	*	*	*	*	*	*	*	*2\right	*color:grey	*	*	*	*	*	*	*	*	*	*	*
8E-\	5_ 3_	.	8e-\	8r	.	8r	.	2E-\	Cru-	2e-\	eti-	2g\	Cru-	2b-\	Cru-	2.ryy	2.ryy	4e-/	4ee-\	4B-\	4b-\	4gg\	.	2.r
8r	.	.	8r	8g/	.	8b-\	.	.	.	.	.	.	.	.	.	.	.	.	.	.	.	.	.	.
8E-\	.	.	8e-\	8r	.	8r	.	.	.	.	.	.	.	.	.	.	.	4e-/	4ee-\	4B-\	4b-\	4gg\	.	.
8r	X X	.	8r	8g/	.	8b-\	.	.	.	.	.	.	.	.	.	.	.	.	.	.	.	.	.	.
8E-\	.	.	8e-\	8r	.	8r	.	4E-\	-ci-	4e-\	-am	4g\	-ci-	4b-\	-ci-	.	.	4e-/	4ee-\	4B-\	4b-\	4gg\	.	.
8r	.	.	8r	8g/	.	8b-\	.	.	.	.	.	.	.	.	.	.	.	.	.	.	.	.	.	.
=44	=44	=44	=44	=44	=44	=44	=44	=44	=44	=44	=44	=44	=44	=44	=44	=44	=44	=44	=44	=44	=44	=44	=44	=44
8E-\	6	.	8e-\	8r	.	8r	.	8.E-\	-fi-	8.e-\	Cruci-	8.a-\	-fi-	8.cc\	-fi-	2.ryy	2.ryy	4e-/	4ee-\	4c\	4cc\	4aa-\	.	2.r
8r	.	.	8r	8a-/	.	8cc\	.	.	.	.	.	.	.	.	.	.	.	.	.	.	.	.	.	.
.	.	.	.	.	.	.	.	16E-\	-xus	16e-\	-fixus	16a-\	-xus	16cc\	-xus	.	.	.	.	.	.	.	.	.
8E-\	4	.	8E-/	8r	.	8r	.	4E-\	est	4e-\	est	4a-\	est	4cc\	est	.	.	4e-/	4ee-\	8B-\L	8b-\L	8gg\L	.	.
!	!	!	!	!	!	!LO:LB:g=original	!	!	!	!	!	!	!	!	!	!	!	!	!	!	!	!	!	!
8r	.	.	8r	8g/	.	8b-/L	.	.	.	.	.	.	.	.	.	.	.	.	.	8A-\	8a-\	8ff\	.	.
4r	.	.	4r	8e-/L	.	8g/	.	4r	.	4r	.	4r	.	4r	.	.	.	4r	4r	8G\	8g\	8ee-\	.	.
.	.	.	.	8f/J	.	8a-/J	.	.	.	.	.	.	.	.	.	.	.	.	.	8A-\J	8a-\J	8ff\J	.	.
!LO:LB:g=original	!	!	!LO:LB:g=original	!	!	!	!	!	!	!	!	!LO:LB:g=original	!	!LO:LB:g=original	!	!	!	!	!	!	!	!	!	!
=45	=45	=45	=45	=45	=45	=45	=45	=45	=45	=45	=45	=45	=45	=45	=45	=45	=45	=45	=45	=45	=45	=45	=45	=45
!	!	!	!	!	!	!	!	!	!	!	!	!	!	!	!	!	!	!LO:TX:t=P:problem=takty 45-46 zapisane repetycją	!	!	!	!	!	!
8E-\	5_ 3_	.	8e-\	8r	.	8r	.	8E-\	e-	8.e-\	e-	8.g\	e-	8b-\L	e-	2.ryy	2.ryy	4e-/yy	4ee-\	4B-\	4b-\	4gg\	.	2.r
8r	.	.	8r	8g/	.	8b-\	.	8E-\	-ti-	.	.	.	.	8b-\J	-ti-	.	.	.	.	.	.	.	.	.
.	.	.	.	.	.	.	.	.	.	16e-\	-ti-	16g\	-ti-	.	.	.	.	.	.	.	.	.	.	.
8E-\	X X	.	8e-\	8r	.	8r	.	4E-\	-am	4e-\	-am	4g\	-am	4b-\	-am	.	.	4e-/yy	4ee-\	4B-\	4b-\	4gg\	.	.
8r	.	.	8r	8g/	.	8b-\	.	.	.	.	.	.	.	.	.	.	.	.	.	.	.	.	.	.
8E-\	.	.	8e-\	8r	.	8r	.	4E-\	pro	4e-\	pro	4g\	pro	4b-\	pro	.	.	4e-/yy	4ee-\	4B-\	4b-\	4gg\	.	.
8r	.	.	8r	8g/	.	8b-\	.	.	.	.	.	.	.	.	.	.	.	.	.	.	.	.	.	.
!	!	!	!	!	!	!	!	!	!	!LO:LB:g=original	!	!	!	!	!	!	!	!	!	!	!	!LO:LB:g=original	!	!
=46	=46	=46	=46	=46	=46	=46	=46	=46	=46	=46	=46	=46	=46	=46	=46	=46	=46	=46	=46	=46	=46	=46	=46	=46
8E-\	6	.	8e-\	8r	.	8r	.	4E-\	no-	4e-\	no-	4a-\	bno-	4cc\	no-	2.ryy	2.ryy	4e-/yy	4ee-\	4c\	4cc\	4aa-\	.	2.r
8r	.	.	8r	8a-/	.	8cc\	.	.	.	.	.	.	.	.	.	.	.	.	.	.	.	.	.	.
!	!	!	!	!LO:LB:g=original	!	!	!	!	!	!	!	!	!	!	!	!	!	!	!	!	!	!	!	!
8E-\	4	.	8E-/	8r	.	8r	.	4E-\	-bis	4e-\	-bis	4g\	-bis	4b-\	-bis	.	.	4e-/yy	4ee-\	4B-\	4b-\	4gg\	.	.
8r	.	.	8r	8g/	.	8b-\	.	.	.	.	.	.	.	.	.	.	.	.	.	.	.	.	.	.
4r	.	.	4r	4r	.	4r	.	4r	.	4r	.	4r	.	4r	.	.	.	4ryy	4r	8G\L	8g\L	8ee-\L	.	.
!	!	!	!	!	!	!	!	!	!	!	!	!	!	!	!	!	!	!	!	!LO:TX:b:i:t=Verte Subito&colon;	!	!	!	!
.	.	.	.	.	.	.	.	.	.	.	.	.	.	.	.	.	.	.	.	8A-\J	8a-\J	8ff\J	.	.
!	!	!	!	!	!	!	!	!LO:LB:g=original	!	!	!	!	!	!	!	!	!	!	!LO:LB:g=original	!LO:PB:g=original	!	!	!	!
=47	=47	=47	=47	=47	=47	=47	=47	=47	=47	=47	=47	=47	=47	=47	=47	=47	=47	=47	=47	=47	=47	=47	=47	=47
!	!	!	!	!	!	!	!	!	!	!	!	!	!	!	!	!	!	!LO:TX:a:t=2	!LO:TX:a:t=2	!	!	!	!	!
8E-\	5	.	8e-\	8r	.	8r	.	2E-\	pas-	2e-\	pas-	2b-\	pas-	2gg\	pas-	2.ryy	2.ryy	1.r	1.r	2B-\	2b-\	2gg\	.	2.r
8r	.	.	8r	8g/	.	8b-\	.	.	.	.	.	.	.	.	.	.	.	.	.	.	.	.	.	.
8G\	.	.	8g\	8r	.	8r	.	.	.	.	.	.	.	.	.	.	.	.	.	.	.	.	.	.
8r	.	.	8r	8g/	.	8b-\	.	.	.	.	.	.	.	.	.	.	.	.	.	.	.	.	.	.
8E-\	.	.	8e-\	8r	.	8r	.	4E-\	-ſus	4e-\	-ſus	4cc\	-sus	4aa-\	-ſus	.	.	.	.	4c\	4cc\	4aa-\	.	.
8r	.	.	8r	8g/	.	8cc\	.	.	.	.	.	.	.	.	.	.	.	.	.	.	.	.	.	.
=48	=48	=48	=48	=48	=48	=48	=48	=48	=48	=48	=48	=48	=48	=48	=48	=48	=48	=48	=48	=48	=48	=48	=48	=48
*	*	*	*	*	*	*	*	*	*ij	*	*	*	*ij	*	*	*	*	*	*	*	*	*	*	*
8BB-/	7	.	8B-/	8r	.	8r	.	2BB-/	pas-	2d\	pas-	2a-\	pas-	2ff\	pas-	2.ryy	2.ryy	.	.	2A-\	2a-\	2ff\	.	2.r
8r	.	.	8r	8f/	.	8a-/	.	.	.	.	.	.	.	.	.	.	.	.	.	.	.	.	.	.
8D/	.	.	8d\	8r	.	8r	.	.	.	.	.	.	.	.	.	.	.	.	.	.	.	.	.	.
8r	.	.	8r	8f/	.	8a-/	.	.	.	.	.	.	.	.	.	.	.	.	.	.	.	.	.	.
8BB-/	.	.	8B-/	8r	.	8r	.	4BB-/	-ſus	4B-\	-ſus	4b-\	-sus	4gg\	-ſus	.	.	.	.	4B-\	4b-\	4gg\	.	.
*	*	*	*	*	*	*	*	*	*Xij	*	*	*	*Xij	*	*	*	*	*	*	*	*	*	*	*
8r	.	.	8r	8g/	.	8b-/	.	.	.	.	.	.	.	.	.	.	.	.	.	.	.	.	.	.
=49	=49	=49	=49	=49	=49	=49	=49	=49	=49	=49	=49	=49	=49	=49	=49	=49	=49	=49	=49	=49	=49	=49	=49	=49
8E-\	3	.	8e-\	8r	.	8r	.	8E-\	et	8B-\	et	8g\	et	8ee-\L	et	2.ryy	2.ryy	4ee-\	4gg\	8G\L	8g/L	8ee-\L	.	2.r
!	!	!	!	!	!	!LO:LB:g=original	!	!	!	!	!	!	!	!	!	!	!	!	!	!	!	!	!	!
8r	.	.	8r	8e-/	.	8g/	.	8E-\	se-	8B-\	se-	8g\	se-	8ee-\J	se-	.	.	.	.	16F\L	16f/L	16dd\L	.	.
.	.	.	.	.	.	.	.	.	.	.	.	.	.	.	.	.	.	.	.	16G\JJ	16g/JJ	16ee-\JJ	.	.
8B-\	7	.	8b-\	8r	.	8r	.	4B-\	-pul-	4c\	-pul-	4a-\	-pul-	4ff\	-pul-	.	.	4ff\	4aa-\	4A-\	4a-/	4ff\	.	.
!	!	!	!	!LO:TX:b:t=f	!	!	!	!	!	!	!	!	!	!	!	!	!	!	!	!	!	!	!	!
8r	.	.	8r	8a- 8f/	.	8a-/	.	.	.	.	.	.	.	.	.	.	.	.	.	.	.	.	.	.
8BB-/	6	.	8B-/	8r	.	8r	.	4BB-/	-tus	4B-\	-tus	4f\	-tus	4dd\	-tus	.	.	4b-/	4ff\	4F\	4f/	4dd\	.	.
8r	.	.	8r	8d/	.	8f/	.	.	.	.	.	.	.	.	.	.	.	.	.	.	.	.	.	.
=50	=50	=50	=50	=50	=50	=50	=50	=50	=50	=50	=50	=50	=50	=50	=50	=50	=50	=50	=50	=50	=50	=50	=50	=50
4E-\	8	.	4e-\	4e-/	.	4g/	.	4E-\	est	4B-\	est	4g\	est	4ee-\	est	2.ryy	2.ryy	4g/	4ee-\	4G\	4g/	4ee-\	.	2.r
4r	.	.	4r	4r	.	4r	.	4r	.	4r	.	4r	.	4r	.	.	.	4r	4r	4r	4r	4r	.	.
!	!	!	!	!	!	!LO:TX:b:i:t=dol.	!	!	!	!	!	!	!	!	!	!	!	!	!	!	!	!	!	!
4r	.	.	4r	4r	.	8gg\L	.	4r	.	4r	.	4r	.	8gg\L	pas-	.	.	4r	4r	4r	4r	4r	.	.
.	.	.	.	.	.	8ee-\J	.	.	.	.	.	.	.	8ee-\J	.	.	.	.	.	.	.	.	.	.
!LO:LB:g=original	!	!	!LO:LB:g=original	!LO:LB:g=original	!	!	!	!	!	!	!	!	!	!	!	!	!	!LO:LB:g=original	!	!	!	!	!	!
=51	=51	=51	=51	=51	=51	=51	=51	=51	=51	=51	=51	=51	=51	=51	=51	=51	=51	=51	=51	=51	=51	=51	=51	=51
*	*	*	*	*	*	*2\right	*	*	*	*	*	*	*	*	*	*	*	*	*	*	*	*	*	*
!LO:TX:a:t=2	!	!	!LO:TX:a:t=2	!LO:TX:a:t=2	!	!	!	!LO:TX:a:t=2.	!	!LO:TX:a:t=2	!	!LO:TX:a:t=2.	!	!	!	!	!	!LO:TX:a:t=2	!LO:TX:a:t=2	!LO:TX:a:t=2.	!LO:TX:a:t=2	!LO:TX:a:t=2	!	!
1.r	.	.	1.r	1.r	.	2b-\	.	1.r	.	1.r	.	1.r	.	2b-\	-sus	2.ryy	2.ryy	1.r	1.r	1.r	1.r	1.r	.	2.r
.	.	.	.	.	.	8ee-\L	.	.	.	.	.	.	.	8ee-\L	pas-	.	.	.	.	.	.	.	.	.
.	.	.	.	.	.	8b-\J	.	.	.	.	.	.	.	8b-\J	.	.	.	.	.	.	.	.	.	.
=52	=52	=52	=52	=52	=52	=52	=52	=52	=52	=52	=52	=52	=52	=52	=52	=52	=52	=52	=52	=52	=52	=52	=52	=52
.	.	.	.	.	.	2g/	.	.	.	.	.	.	.	2g\	-sus	2.ryy	2.ryy	.	.	.	.	.	.	2.r
!	!	!	!	!	!	!LO:TX:t=P:problem=mixed beam	!	!	!	!	!	!	!	!LO:TX:t=P:problem=mixed beam	!	!	!	!	!	!	!	!	!	!
.	.	.	.	.	.	8b-\L	.	.	.	.	.	.	.	8b-\L	et	.	.	.	.	.	.	.	.	.
.	.	.	.	.	.	8e-/J	.	.	.	.	.	.	.	8e-/J	se-	.	.	.	.	.	.	.	.	.
!	!	!	!	!	!	!	!	!	!	!	!	!LO:LB:g=original	!	!	!	!	!	!	!	!	!LO:LB:g=original	!	!	!
=53	=53	=53	=53	=53	=53	=53	=53	=53	=53	=53	=53	=53	=53	=53	=53	=53	=53	=53	=53	=53	=53	=53	=53	=53
4E-\	3	.	4B-/	2B-/	.	2B-/	.	4E-\	se-	2e-\	pul-	2g\	pul-	2b-\	-pul-	2.ryy	2.ryy	2g/	2ee-\	2B-\	2b-\	2b-\	.	2.r
4G\	8	.	4r	.	.	.	.	4G\	-pul-	.	.	.	.	.	.	.	.	.	.	.	.	.	.	.
4B-\	5	.	4B-/	8An/L	.	8c/L	.	4B-\	-tus	4B-\	-tus	8a-\L	-tus	8cc\L	-tus	.	.	4b-/	4ff\	8c\L	8a\L	8cc\L	.	.
.	.	.	.	8A-X/J	.	8d/J	.	.	.	.	.	8f\J	.	8dd\J	.	.	.	.	.	8d\J	8a-X\J	8dd\J	.	.
=54	=54	=54	=54	=54	=54	=54	=54	=54	=54	=54	=54	=54	=54	=54	=54	=54	=54	=54	=54	=54	=54	=54	=54	=54
4E-\	8	.	4e-\	4G/	.	4e-/	.	4E-\	est	4B-\	est	4g\	est	4ee-\	est	2.ryy	2.ryy	4g/	4ee-\	4e-\	4g/	4ee-\	.	2.r
4r	.	.	4r	4r	.	4r	.	4r	.	4r	.	4r	.	4r	.	.	.	4r	4r	4r	4r	4r	.	.
4r	.	.	4r	4r	.	8gg\L	.	4r	.	4r	.	4r	.	8gg\L	pas-	.	.	4r	4r	4r	4r	4r	.	.
.	.	.	.	.	.	8ee-\J	.	.	.	.	.	.	.	8ee-\J	.	.	.	.	.	.	.	.	.	.
!	!	!	!	!	!	!	!	!	!	!	!	!	!	!LO:LB:g=original	!	!	!	!	!	!	!	!	!	!
=55	=55	=55	=55	=55	=55	=55	=55	=55	=55	=55	=55	=55	=55	=55	=55	=55	=55	=55	=55	=55	=55	=55	=55	=55
!LO:TX:a:t=2.	!	!	!LO:TX:a:t=2	!LO:TX:a:t=2	!	!	!	!LO:TX:a:t=2.	!	!LO:TX:a:t=2.	!	!LO:TX:a:t=2.	!	!	!	!	!	!LO:TX:a:t=2	!LO:TX:a:t=2	!LO:TX:a:t=2.	!	!LO:TX:a:t=2	!	!
1.r	.	.	1.r	1.r	.	2b-/	.	1.r	.	1.r	.	1.r	.	2b-\	-sus	2.ryy	2.ryy	1.r	1.r	1.r	1.r	1.r	.	2.r
.	.	.	.	.	.	8ee-\L	.	.	.	.	.	.	.	8ee-\L	pas-	.	.	.	.	.	.	.	.	.
.	.	.	.	.	.	8b-\J	.	.	.	.	.	.	.	8b-\J	.	.	.	.	.	.	.	.	.	.
!	!	!	!	!	!	!LO:LB:g=original	!	!	!	!	!	!	!	!	!	!	!	!	!	!	!	!	!	!
=56	=56	=56	=56	=56	=56	=56	=56	=56	=56	=56	=56	=56	=56	=56	=56	=56	=56	=56	=56	=56	=56	=56	=56	=56
.	.	.	.	.	.	2g/	.	.	.	.	.	.	.	2g\	-sus	2.ryy	2.ryy	.	.	.	.	.	.	2.r
!	!	!	!	!	!	!	!	!	!	!	!	!	!	!LO:TX:t=P:problem=mixed beam	!	!	!	!	!	!	!	!	!	!
.	.	.	.	.	.	8b-/L	.	.	.	.	.	.	.	8b-\L	et	.	.	.	.	.	.	.	.	.
.	.	.	.	.	.	8e-/J	.	.	.	.	.	.	.	8e-/J	se-	.	.	.	.	.	.	.	.	.
!	!	!	!	!	!	!	!	!	!	!	!	!	!	!	!	!	!	!	!	!LO:LB:g=original	!	!	!	!
=57	=57	=57	=57	=57	=57	=57	=57	=57	=57	=57	=57	=57	=57	=57	=57	=57	=57	=57	=57	=57	=57	=57	=57	=57
*	*	*	*	*	*	*	*	*	*ij	*	*	*	*	*	*	*	*	*	*	*	*	*	*	*
4E-\	3	.	4B-/	2B-/	.	2B-/	.	4E-\	se-	2e-\	pul-	2g\	pul-	2b-\	-pul-	2.ryy	2.ryy	2g/	2ee-\	2B-\	2b-\	2b-\	.	2.r
4G\	8	.	4r	.	.	.	.	4G\	-pul-	.	.	.	.	.	.	.	.	.	.	.	.	.	.	.
4B-\	5	.	4B-/	8An/L	.	8c/L	.	4B-\	-tus	4B-\	-tus	8a-\L	-tus	8cc\L	-tus	.	.	4b-/	4ff\	8c\L	8a\L	8cc\L	.	.
.	.	.	.	8A-X/J	.	8d/J	.	.	.	.	.	8f\J	.	8dd\J	.	.	.	.	.	8d\J	8a-X\J	8dd\J	.	.
=58	=58	=58	=58	=58	=58	=58	=58	=58	=58	=58	=58	=58	=58	=58	=58	=58	=58	=58	=58	=58	=58	=58	=58	=58
4E-\	.	.	4e-\	4G/	.	4e-/	.	4E-\	est	4B-\	est	4g\	est.	4ee-\	est	2.ryy	2.ryy	4g/	4ee-\	4e-\	4g/	2ee-\	.	2.r
*	*	*	*	*	*	*	*	*	*Xij	*	*	*	*	*	*	*	*	*	*	*	*	*	*	*
4E-\	.	.	4E-/	4G/	.	4e-/	.	4r	.	4r	.	4r	.	4r	.	.	.	4g/	4ee-\	4e-\	4g/	.	.	.
!	!	!	!	!	!	!	!	!	!	!	!	!	!	!	!	!	!	!	!	!	!	!LO:TX:b:i:t=Etresurrexit Verte Citto.	!	!
4E-\	.	.	4E-/	4G/	.	4e-/	.	4r	.	4r	.	4r	.	4r	.	.	.	4g/	4ee-\	4e-\	4g/	4r	.	.
=59	=59	=59	=59	=59	=59	=59	=59	=59	=59	=59	=59	=59	=59	=59	=59	=59	=59	=59	=59	=59	=59	=59	=59	=59
!	!	!	!	!	!	!	!	!LO:TX:a:t=1.	!	!LO:TX:a:t=1	!	!LO:TX:b:t=1.	!	!LO:TX:a:t=1.	!	!	!	!	!	!	!	!	!	!
!	!	!	!	!	!	!	!	!	!	!LO:TX:t=P:problem=fermata na kresce taktowej	!	!	!	!LO:TX:t=P:problem=fermaty na kresce taktowej	!	!	!	!	!	!	!	!	!	!
2E-\	.	.	2E-/	2G/	.	2e-/	.	2.r	.	2.r;	.	2.r	.	2.r;;	.	2.ryy	2.ryy	2g/	2ee-\	2e-\	2g/	2.ryy	.	2.r
!	!	!	!	!	!	!LO:TX:b:i:t=Segue.	!	!	!	!	!	!	!	!	!	!	!	!	!	!	!LO:TX:t=P:problem=fermata na kresce taktowej	!	!	!
!LO:TX:t=P:problem=fermata na kresce taktowej	!	!	!	!LO:TX:t=P:problem=fermata na kresce taktowej	!	!LO:TX:t=P:problem=fermata na kresce taktowej	!	!	!	!	!	!	!	!	!	!	!	!	!	!	!	!	!	!
4r;	.	.	4r	4r;	.	4r;	.	.	.	.	.	.	.	.	.	.	.	4r	4r	4r	4r;	.	.	.
==	==	==	==	==	==	==	==	==	==	==	==	==	==	==	==	==	==	==	==	==	==	==	==	==
*-	*-	*-	*-	*-	*-	*-	*-	*-	*-	*-	*-	*-	*-	*-	*-	*-	*-	*-	*-	*-	*-	*-	*-	*-
!!!system-decoration: [(g1)][(g2)]<s8>[(g3)][(g4)]s16
!!!RDF**kern: | = vertical stroke
!!!ENC: Solarz Mateusz
!!!END: 2020-10-14
!!!ENC: Marta Lawrence
!!!END: 2021-01-17
